X:2301
T:Ny Kirree fo Niaghtey - Mylrea's version 
C:Traditional
O:Isle of Man
S:J.T.S. 1888 
Z:Clague collection
B:Kiaull Vannin #301 
M:3/4 
L:1/8 
Q:120 
K:D 
B2|B>A F2 F>E|FA B2 d>c|BA F2 d>e|f4 f2|a2 f2 e2|f>e c2 c>B|BA F2 A2|B4 Bc|
de f2 ed|c>d e2 A2|d>e f2 ^g2|a4 A2|d>e fa af|f>e c2 c>B|BA F2 A2|B4||

